core/img/actions/edit.svg

<svg xmlns:rdf="http://www.w3.org/1999/02/22-rdf-syntax-ns#" xmlns="http://www.w3.org/2000/svg" height="16" width="16" version="1" xmlns:cc="http://creativecommons.org/ns#" xmlns:dc="http://purl.org/dc/elements/1.1/">
 <path style="block-progression:tb;text-transform:none;text-indent:0" d="m2.35 1.002a0.45 0.45 0 0 0 -0.35 0.438v13.12c0 0.232 0.206 0.44 0.432 0.44h11.138a0.452 0.452 0 0 0 0.432 -0.438v-10.142a0.458 0.458 0 0 0 -0.055 -0.192l-3.312-3.2a0.427 0.427 0 0 0 -0.135 -0.026h-8.07a0.424 0.424 0 0 0 -0.08 0zm1.65 1.998h6v1h-6v-1zm0 3h5v1h-5v-1zm0 3h8v1h-8v-1zm0 3h4v1h-4v-1z" fill="#f2f2f2"/>
</svg>

<?xml version="1.0" encoding="UTF-8" standalone="no"?>
<svg
   xmlns:dc="http://purl.org/dc/elements/1.1/"
   xmlns:cc="http://creativecommons.org/ns#"
   xmlns:rdf="http://www.w3.org/1999/02/22-rdf-syntax-ns#"
   xmlns:svg="http://www.w3.org/2000/svg"
   xmlns="http://www.w3.org/2000/svg"
   xmlns:sodipodi="http://sodipodi.sourceforge.net/DTD/sodipodi-0.dtd"
   xmlns:inkscape="http://www.inkscape.org/namespaces/inkscape"
   height="16"
   width="16"
   version="1"
   id="svg4"
   sodipodi:docname="edit.svg"
   inkscape:version="0.92.1 r">
  <metadata
     id="metadata10">
    <rdf:RDF>
      <cc:Work
         rdf:about="">
        <dc:format>image/svg+xml</dc:format>
        <dc:type
           rdf:resource="http://purl.org/dc/dcmitype/StillImage" />
        <dc:title></dc:title>
      </cc:Work>
    </rdf:RDF>
  </metadata>
  <defs
     id="defs8" />
  <sodipodi:namedview
     pagecolor="#ffffff"
     bordercolor="#666666"
     borderopacity="1"
     objecttolerance="10"
     gridtolerance="10"
     guidetolerance="10"
     inkscape:pageopacity="0"
     inkscape:pageshadow="2"
     inkscape:window-width="2560"
     inkscape:window-height="1377"
     id="namedview6"
     showgrid="false"
     inkscape:zoom="14.75"
     inkscape:cx="0.54237288"
     inkscape:cy="8"
     inkscape:window-x="1680"
     inkscape:window-y="0"
     inkscape:window-maximized="1"
     inkscape:current-layer="svg4" />
  <path
     style="block-progression:tb;text-transform:none;text-indent:0;fill:#f2f2f2;fill-opacity:1"
     d="M2.35 1.002A.45.45 0 0 0 2 1.44V14.56c0 .232.206.44.432.44H13.57a.452.452 0 0 0 .432-.438V4.42a.458.458 0 0 0-.055-.192l-3.312-3.2a.427.427 0 0 0-.135-.026H2.43a.424.424 0 0 0-.08 0zM4 3h6v1H4V3zm0 3h5v1H4V6zm0 3h8v1H4V9zm0 3h4v1H4v-1z"
     color="#000"
     id="path2" />
</svg>
